X:50
T: SINGT UND TRINKT
N: F0139
O: Europa, Mitteleuropa, Deutschland
R: Trink - Lied
M: 2/4
L: 1/8
K: G
 | GABz | Bcdz |
eeee | dcBz |
AGAG | ABc2 |
BABA | Bcd2 |
e3e | dcBA | G2z2

@@@ Tune index: 5481
